X:14689
%3502
T:Courenta
C:Gian Renzo Dutto
C:Valle Vermenagna
M:6/8
L:1/8
K:Cmaj
E,|G,E,G, CG,C|E3-EzE|DED G,A,B,|C3-C2E,|\
G,E,G, CG,C|E3-EzE|DED G,A,B,|C3CB,C||
D2G, D2G,|E2C C
